X: 29527
T: No Fear No Grace
R: polka
M: 2/4
K: Bdorian
|:b2 f3/2e/|dB Bd|cA ce|a2 fa|
b2 f3/2e/|dB Bd|cA eA|cB B2:|
fb fb|fb a3/2f/|g3/2f/ eg|af ge|
fb fb|fb a3/2f/|g3/2f/ eg|f2 fe|
d2 ce|dB BA|FB AF|E2 ED/E/|
FB dB|fB b3/2f/|ec Ac|Be fa||

